X: 351
T: Down By the Ocean Tide
M:2/4
L:1/16
B:O'Neill's 351
N:"With spirit."
N:"collected by J. O'Neill"
Z:Transcribed by Chris Falt, cfalt@trytel.com
K:G
D2 | G2AG F2G2 | A2=f2 d2cA | GFGB (A2{BA}G2) | F2D2 D2D2 |
G2AG F2G2 | A2=f2 d2(3ABc | d2cA G2G2 | G6 ||
d2 | d2de f2g2 | =f2dc B2AG | GFGB AGFE | F4 D2D2 |
G2AG F2G2 | A2=f2 dABc | d2cA G2G2 | G6 ||


